X:729
%%etbk:tnset id:491,pos:1,rep:3x,ant:
%%etbk:pldat 2016-07-09T13:32,2016-06-12T13:34,2016-03-30T17:05,2016-03-14T18:37,2016-02-13T14:53,2016-01-19T17:15,2016-01-17T14:44,2016-01-12T17:22,2016-01-10T13:41,2016-01-02T13:29,2016-01-01T16:21,2015-12-31T14:32,2015-12-28T16:20,2015-12-23T17:14,2015-12-13T14:54,2015-12-13T14:24,2015-10-12T17:57,2015-09-29T16:55,2015-08-19T16:16,2015-08-18T16:40,2015-08-17T19:06,2015-08-10T19:27,2015-08-06T18:10,2015-08-05T17:00,2015-08-04T16:10,2015-08-03T18:51,2015-08-02T11:49,2015-08-01T16:56,2015-07-31T17:54,2015-07-30T19:14,2015-07-29T15:52,2015-07-27T18:14,2015-07-25T14:24,2015-07-23T18:23,2015-07-22T16:39,2015-07-20T18:09,2015-07-19T14:53,2015-07-18T15:07,2015-07-17T16:46,2015-07-16T16:55,2015-07-15T17:24,2015-07-11T13:59,2015-07-08T10:02,2015-07-07T17:32,2015-07-07T08:49,2015-06-22T19:17,2015-06-18T19:28,2015-06-16T17:49,2015-06-15T19:44,2015-06-08T18:32,2015-06-04T18:43,2015-05-31T14:42,2015-05-15T15:11
T: Feabhra (Edor)
Z: Piano Box Version by Martin Fleischmann
H: Created 2015-05-15 /  Last Modified 2015-05-15
M: 4/4
L: 1/8
R: reel
K:Edor
!2!B-|"em"Bd!4!e!5!f ef!3!d!2!B|"bm"!1!A!2!F!5!d!2!F !1!E!2!F!1!D!5!d|"em"!2!B!1!A!3!d!5!f edfe|"bm"!3!d!4!e!2!B!1!A A3!2!B-|
"em"Bdef efdB|"bm"AFdF EFD!5!d|"em"!4!B!3!A!2!F!1!E !2!D!1!E!2!FA|"bm"!5!B!2!F!4!A!2!F "em"!1!E4|
"em"!2!B2!4!e!4!e !5!f!4!e!3!d!2!B|!4!e!3!d!2!B!1!A !3!F!2!E!1!D2|!2!B2!4!e!4!e !3!fed!4!g-|"bm"gfef "em"!2!e2ed|
"em"Beee fedB|edBA FE!1!D2|"bm"!5!B!4!A!2!F!1!E !2!D!1!E!2!F!4!A|BFAF "em"!1!E!3!B!5!d!4!c|
"em"!3!B!1!EEE !2!FAFA|!5!B!1!EEE !3!F!1!E!1!D2|!5!BEEE FAFA|"bm"BFAF "em"EBdc|
"em"BEEE FAFA|BEEE FED2|"bm"BAFE DEFA|BFAF "em"E4||


